;FLAVOR:UltiGCode
;TIME:265
;MATERIAL:3471
;MATERIAL2:0
;NOZZLE_DIAMETER:0.6
;MINX:53.955
;MINY:102.01
;MINZ:0.4
;MAXX:169.037
;MAXY:122.225
;MAXZ:5.4
;Generated with Cura_SteamEngine 4.13.1
M82 ;absolute extrusion mode
G0 F3000 Y50 ;avoid prime blob
G92 E0
G92 E0
G10
;LAYER_COUNT:6
;LAYER:0
M107
;MESH:??????.stl
G0 F3927.3 X63.505 Y105.686 Z0.4
;TYPE:WALL-OUTER
G11
G1 F1800 X63.383 Y105.006 E0.27634
G1 X63.249 Y104.672 E0.42029
G1 X62.998 Y104.414 E0.56427
G1 X62.669 Y104.285 E0.70563
G1 X62.011 Y104.257 E0.96907
G1 X61.618 Y104.277 E1.12647
G1 X61.941 Y103.428 E1.356
G1 X62.606 Y103.522 E1.58013
G1 X63.383 Y103.686 E1.85064
G1 X63.644 Y103.809 E1.95147
G1 X63.824 Y104.02 E2.04662
G1 X63.951 Y104.373 E2.17319
G1 X64.001 Y104.906 E2.30716
G1 X64 Y113.525 E5.75476
G1 X64.024 Y114.126 E5.99535
G1 X64.064 Y115.38 E6.49721
G1 X64.073 Y115.867 E6.69204
G1 X61.16 Y115.867 E7.85724
G1 X61.165 Y116.983 E8.30365
G1 X61.17 Y117.325 E8.44046
G1 X61.187 Y117.987 E8.70535
G1 X61.214 Y118.62 E8.95878
G1 X61.248 Y119.222 E9.19996
G1 X61.279 Y119.635 E9.36563
G1 X60.729 Y119.662 E9.49378
G1 X60.597 Y119.67 E9.51309
G1 X60.614 Y119.244 E9.60403
G1 X60.638 Y118.308 E9.86916
G1 X60.655 Y116.973 E10.23704
G1 X60.659 Y115.862 E10.46331
G1 X59.943 Y115.871 E10.74974
G1 X59.159 Y115.91 E11.06373
G1 X59.121 Y115.913 E11.07897
G1 X59.121 Y115.468 E11.16054
G1 X59.313 Y115.481 E11.16156
G1 X59.834 Y115.507 E11.21551
G1 X60.657 Y115.528 E11.34392
G1 X60.653 Y114.493 E11.75792
G1 X60.651 Y114.469 E11.76755
G1 X60.641 Y113.898 E11.99599
G1 X60.619 Y113.283 E12.24214
G1 X60.591 Y112.7 E12.47561
G1 X60.588 Y112.678 E12.48449
G1 X60.556 Y112.149 E12.69648
G1 X60.508 Y111.569 E12.92927
G1 X60.519 Y111.569
G1 X60.394 Y110.475 E13.36972
G1 X60.325 Y109.947 E13.58272
G1 X60.25 Y109.429 E13.79208
G1 X60.162 Y108.91 E14.00264
G1 X60.001 Y108.037 E14.35773
G1 X59.851 Y107.452 E14.5993
G1 X59.592 Y106.522 E14.98546
G1 X59.291 Y105.634 E15.36051
G1 X58.947 Y104.789 E15.72544
G1 X58.562 Y103.991 E16.07985
G1 X58.398 Y103.679 E16.22084
G1 X58.954 Y103.422 E16.36548
G1 X59.007 Y103.513 E16.37217
G1 X59.23 Y103.969 E16.53397
G1 X59.441 Y104.428 E16.63571
G1 X59.633 Y104.89 E16.79121
G1 X59.828 Y105.393 E16.90244
G1 X60.137 Y106.305 E17.13726
G1 X60.39 Y107.231 E17.3711
G1 X60.502 Y107.72 E17.50055
G1 X60.598 Y108.227 E17.65692
G1 X60.662 Y108.613 E17.71202
G1 X60.734 Y109.154 E17.87389
G1 X60.791 Y109.617 E18.01548
G1 X60.855 Y110.202 E18.19161
G1 X60.898 Y110.645 E18.26084
G1 X60.941 Y111.153 E18.30303
G1 X60.98 Y111.723 E18.47907
G1 X61.011 Y112.258 E18.61126
G1 X61.038 Y112.783 E18.7366
G1 X61.037 Y112.81
G1 X61.058 Y113.361 E18.85747
G1 X61.073 Y113.934 E18.96912
G1 X61.081 Y114.543 E19.0933
G1 X61.087 Y115.515 E19.2533
G1 X63.419 Y115.515 E19.60373
G1 X63.419 Y113.526 E20.15675
G1 X63.418 Y105.686 E21.98216
G1 X63.505 Y105.686
G0 F3927.3 X63.452 Y105.391
G10
G0 X63.519 Y105.392
G0 X63.447 Y115.543
G0 X59.155 Y115.891
G0 X57.521 Y116.567
G0 X57.959 Y117.834
G11
G0 X58.011 Y117.813
G1 F1800 X58.566 Y118.809 E22.43823
G1 X58.783 Y119.162 E22.60398
G1 X58.266 Y119.403 E22.73302
G1 X57.831 Y119.634 E22.89664
G1 X57.628 Y118.901 E23.08296
G1 X57.389 Y118.146 E23.3318
G1 X57.197 Y117.658 E23.54157
G1 X56.853 Y116.837 E23.89763
G1 X56.463 Y116.02 E24.25975
G1 X56.029 Y115.211 E24.62698
G1 X55.587 Y114.449 E24.97934
G1 X55.161 Y113.761 E25.30303
G1 X54.753 Y113.15 E25.59691
G1 X54.363 Y112.611 E25.86303
G1 X53.987 Y112.147 E26.10192
G1 X53.955 Y112.111 E26.12118
G1 X54.377 Y111.755 E26.26159
G1 X54.404 Y111.728 E26.27686
G1 X54.492 Y111.834
G1 X54.879 Y112.324 E26.44072
G1 X55.174 Y112.715 E26.54236
G1 X55.506 Y113.179 E26.69837
G1 X56.023 Y113.97 E26.98092
G1 X56.743 Y113.76 E27.28092
G1 X56.742 Y106.859 E30.04132
G1 X56.741 Y105.719 E30.49732
G1 X56.729 Y104.702 E30.90415
G1 X56.716 Y104.06 E31.161
G1 X56.699 Y103.479 E31.3935
G1 X56.683 Y103.084 E31.55163
G1 X57.306 Y103.084 E31.69509
G1 X57.272 Y104.023 E31.94926
G1 X57.251 Y105.455 E32.41281
G1 X57.246 Y106.858 E32.76417
G1 X57.246 Y113.759 E34.15423
G1 X57.247 Y115.884 E34.9645
G1 X57.458 Y116.416 E35.12431
G1 X57.797 Y117.233 E35.39853
G1 X58.059 Y117.813 E35.60192
G1 X58.011 Y117.813
G0 F3927.3 X58.157 Y118.075
G0 X58.427 Y118.112
G10
G0 X58.44 Y118.144
G0 X57.776 Y117.233
G0 X59.218 Y117.213
G0 X67.995 Y114.744
G0 X66.124 Y114.501
G0 X66.616 Y105.59
G11
G0 X66.686 Y105.66
G1 F1800 X66.686 Y115.039 E39.35352
G1 X66.686 Y116.053 E39.75912
G1 X69.866 Y116.053 E41.03112
G1 X69.866 Y114.282 E41.73952
G1 X69.866 Y105.66 E45.18832
G1 X66.686 Y105.66 E46.46032
G0 F3927.3 X66.686 Y105.96
G0 X66.586 Y105.96
G0 X69.936 Y105.379
G0 X69.866 Y105.309
G1 F1800 X69.866 Y103.621 E47.13552
G1 X70.494 Y103.621 E47.38672
G1 X70.471 Y104.133 E47.4916
G1 X70.459 Y104.624 E47.62224
G1 X70.45 Y105.184 E47.84626
G1 X70.446 Y105.811 E48.05644
G1 X70.445 Y114.282 E50.03979
G1 X70.451 Y114.989 E50.3226
G1 X70.465 Y115.65 E50.46933
G1 X70.498 Y116.404 E50.77122
G1 X66.047 Y116.404 E52.13268
G1 X66.071 Y115.864 E52.31343
G1 X66.097 Y115.039 E52.49714
G1 X66.104 Y114.501 E52.67905
G1 X66.104 Y105.694 E55.06341
G1 X66.101 Y105.144 E55.28341
G1 X66.092 Y104.637 E55.48624
G1 X66.06 Y103.706 E55.85886
G1 X66.052 Y103.544 E55.92374
G1 X66.686 Y103.544 E56.08638
G1 X66.686 Y105.309 E56.66351
G1 X69.866 Y105.309 E57.10999
G0 F3927.3 X69.866 Y105.009
G10
G0 X69.966 Y105.009
G0 X70.426 Y107.356
G0 X74.54 Y106.251
G0 X74.865 Y107.358
G11
G0 X74.772 Y107.298
G1 F1800 X74.579 Y106.475 E57.44812
G1 X74.415 Y105.865 E57.70078
G1 X74.207 Y105.261 E57.95631
G1 X73.958 Y104.674 E58.21136
G1 X73.665 Y104.1 E58.46914
G1 X73.568 Y103.929 E58.54778
G1 X74.037 Y103.639 E58.76834
G1 X74.245 Y103.477 E58.8738
G1 X74.518 Y104.179 E59.0643
G1 X74.621 Y104.464 E59.15958
G1 X74.83 Y105.102 E59.34852
G1 X74.999 Y105.683 E59.49769
G1 X75.148 Y106.276 E59.65059
G1 X75.276 Y106.867 E59.80562
G1 X75.387 Y107.458 E60.01025
G1 X75.482 Y108.039 E60.24574
G1 X75.561 Y108.588 E60.4676
G1 X75.596 Y108.878 E60.58444
G1 X75.659 Y109.465 E60.82059
G1 X75.721 Y110.29 E61.15152
G1 X75.752 Y110.879 E61.38745
G1 X75.78 Y111.732 E61.72883
G1 X75.789 Y112.297 E61.95486
G1 X75.788 Y112.868 E62.18326
G1 X75.785 Y113.148 E62.29527
G1 X75.77 Y113.999 E62.63572
G1 X75.767 Y114.29 E62.75213
G1 X75.767 Y114.874 E62.98573
G1 X75.779 Y115.764 E63.34176
G1 X75.795 Y116.371 E63.58464
G1 X75.834 Y117.357 E63.97935
G1 X83.285 Y117.356 E66.95975
G1 X87.977 Y117.355 E68.83655
G1 X88.637 Y117.344 E69.10059
G1 X89.619 Y117.314 E69.49357
G1 X90.016 Y117.297 E69.65252
G1 X90.016 Y117.827 E69.76522
G1 X89.865 Y117.814
G1 X89.331 Y117.777 E69.90048
G1 X88.374 Y117.724 E70.14508
G1 X87.755 Y117.708 E70.3035
G1 X83.286 Y117.708 E70.96338
G1 X83.072 Y118.433 E71.26575
G1 X82.706 Y119.772 E71.821
G1 X82.691 Y119.831 E71.84535
G1 X81.915 Y119.644 E72.16464
G1 X82.096 Y119.126 E72.27489
G1 X82.134 Y119.039
G1 X82.328 Y118.344 E72.49555
G1 X82.33 Y118.328 E72.50118
G1 X82.507 Y117.708 E72.70739
G1 X75.123 Y117.708 E73.92881
G1 X75.168 Y117.146 E74.10071
G1 X75.198 Y116.631 E74.20918
G1 X75.211 Y116.372 E74.25669
G1 X75.227 Y115.833 E74.37379
G1 X75.236 Y115.308 E74.51481
G1 X75.235 Y114.496 E74.78057
G1 X75.223 Y113.663 E75.02107
G1 X75.203 Y112.843 E75.25663
G1 X75.172 Y111.992 E75.51934
G1 X75.131 Y111.15 E75.77594
G1 X75.081 Y110.333 E76.02371
G1 X75.022 Y109.558 E76.21973
G1 X75.015 Y109.346 E76.26915
G1 X74.899 Y108.293 E76.62128
G1 X74.872 Y107.947 E76.72046
G1 X74.752 Y107.298 E76.92708
G1 X74.772 Y107.298
G0 F3927.3 X74.704 Y107.006
G10
G0 X74.801 Y106.986
G0 X75.702 Y110.291
G0 X77.552 Y112.485
G0 X79.728 Y112.629
G11
G0 X79.729 Y112.53
G1 F1800 X79.661 Y112.217 E77.0552
G1 X79.278 Y110.819 E77.63501
G1 X79.144 Y110.418 E77.80413
G1 X78.896 Y109.707 E78.10533
G1 X78.597 Y109.011 E78.40833
G1 X78.294 Y108.394 E78.68329
G1 X77.972 Y107.834 E78.94168
G1 X77.654 Y107.338 E79.17735
G1 X77.357 Y106.897 E79.39003
G1 X76.922 Y106.301 E79.68517
G1 X76.588 Y105.886 E79.89826
G1 X77.119 Y105.458 E80.17106
G1 X77.284 Y105.31 E80.25972
G1 X77.491 Y105.653 E80.34211
G1 X77.957 Y106.454 E80.65727
G1 X78.3 Y107.085 E80.87352
G1 X78.591 Y107.714 E81.08337
G1 X78.898 Y108.445 E81.32755
G1 X79.182 Y109.165 E81.57457
G1 X79.995 Y109.01 E81.90563
G1 X79.993 Y104.652 E83.64883
G1 X79.975 Y103.846 E83.97131
G1 X79.941 Y102.889 E84.35435
G1 X79.936 Y102.777 E84.3992
G1 X80.635 Y102.777 E84.58538
G1 X80.618 Y103.166 E84.64214
G1 X80.594 Y103.87 E84.83572
G1 X80.58 Y104.477 E84.96636
G1 X80.576 Y104.985 E85.13182
G1 X80.576 Y109.01 E86.13975
G1 X80.576 Y112.53 E87.54775
G1 X81.256 Y112.518 E87.8198
G1 X81.914 Y112.487 E88.08329
G1 X82.112 Y112.473 E88.16269
G1 X82.093 Y112.92 E88.26126
G1 X81.515 Y112.886 E88.39622
G1 X81.168 Y112.875 E88.44814
G1 X80.574 Y112.875 E88.53415
G1 X80.577 Y113.702 E88.86495
G1 X80.589 Y114.353 E89.12539
G1 X80.61 Y115.036 E89.39872
G1 X80.633 Y115.559 E89.60812
G1 X79.937 Y115.559 E89.77042
G1 X79.961 Y115.002 E89.89068
G1 X79.987 Y114.125 E90.14984
G1 X79.994 Y113.528 E90.32566
G1 X79.994 Y112.951 E90.44302
G1 X78.759 Y112.951 E90.93702
G1 X77.539 Y112.951 E91.42502
G1 X77.539 Y112.47 E91.61742
G1 X78.258 Y112.504 E91.74054
G1 X78.759 Y112.518 E91.81688
G1 X79.729 Y112.53 E91.96896
G0 F3927.3 X79.666 Y112.237
G10
G0 X79.763 Y112.213
G0 X80.556 Y110.159
G0 X81.641 Y109.955
G11
G0 X82.156 Y110.218
G1 F1800 X82.074 Y110.337 E92.02677
G1 X81.683 Y110.002 E92.15127
G1 X81.622 Y109.957 E92.16654
G1 X81.797 Y109.723 E92.26758
G1 X82.2 Y109.171 E92.54097
G1 X82.599 Y108.551 E92.83588
G1 X83.018 Y108.856 E92.93916
G1 X83.073 Y108.902
G1 X82.722 Y109.421 E93.07615
G1 X82.528 Y109.701 E93.15793
G1 X82.156 Y110.218 E93.33088
G0 F3927.3 X82.074 Y110.337
G0 X81.956 Y110.236
G0 X82.021 Y110.16
G0 X83.504 Y108.227
G0 X84.57 Y109.08
G0 X84.515 Y109.103
G1 F1800 X84.08 Y108.322 E93.68847
G1 X83.823 Y107.874 E93.89506
G1 X83.525 Y107.404 E94.11766
G1 X83.206 Y106.953 E94.33863
G1 X82.866 Y106.52 E94.55884
G1 X82.25 Y105.84 E94.92585
G1 X82.904 Y105.262 E95.13114
G1 X83.214 Y105.702 E95.23609
G1 X83.707 Y106.46 E95.55984
G1 X84.013 Y106.983 E95.73975
G1 X84.207 Y107.341 E95.8578
G1 X84.583 Y108.069 E96.07162
G1 X84.863 Y108.631 E96.1825
G1 X85.203 Y109.337 E96.47354
G1 X85.98 Y109.16 E96.7923
G1 X85.978 Y104.886 E98.5019
G1 X85.967 Y104.204 E98.77473
G1 X85.937 Y103.131 E99.2041
G1 X85.92 Y102.7 E99.37664
G1 X86.544 Y102.7 E99.52927
G1 X86.527 Y103.108 E99.57168
G1 X86.503 Y103.871 E99.76191
G1 X86.489 Y104.576 E99.98675
G1 X86.484 Y105.371 E100.23337
G1 X86.485 Y109.406 E101.13977
G1 X87.29 Y109.566 E101.46807
G1 X87.483 Y109.102 E101.66908
G1 X87.8 Y108.418 E101.97064
G1 X88.117 Y107.833 E102.23678
G1 X88.384 Y107.409 E102.43721
G1 X88.775 Y106.872 E102.70291
G1 X89.191 Y106.353 E102.96897
G1 X89.618 Y105.857 E103.23076
G1 X90.022 Y105.416 E103.47
G1 X90.332 Y105.812 E103.56277
G1 X90.7 Y106.173 E103.72088
G1 X90.116 Y106.608 E103.89994
G1 X89.646 Y107.024 E104.12398
G1 X89.444 Y107.222 E104.19585
G1 X88.889 Y107.808 E104.43031
G1 X88.391 Y108.477 E104.69536
G1 X88.013 Y109.046 E104.8762
G1 X87.667 Y109.65 E105.05773
G1 X87.374 Y110.247 E105.26203
G1 X87.119 Y110.855 E105.52575
G1 X86.835 Y111.663 E105.86834
G1 X86.58 Y112.524 E106.22752
G1 X87.608 Y112.521 E106.48165
G1 X88.308 Y112.51 E106.76168
G1 X89.259 Y112.479 E107.14229
G1 X89.555 Y112.465 E107.26082
G1 X89.555 Y112.932 E107.35969
G1 X88.923 Y112.906 E107.5141
G1 X88.161 Y112.886 E107.68963
G1 X87.39 Y112.875 E107.86744
G1 X86.485 Y112.873 E108.0314
G1 X86.485 Y113.54 E108.2982
G1 X86.502 Y114.285 E108.59628
G1 X86.548 Y115.117 E108.92958
G1 X86.535 Y115.117
G1 X86.59 Y115.636 E109.06076
G1 X85.925 Y115.636 E109.2016
G1 X85.954 Y114.888 E109.39701
G1 X85.972 Y114.202 E109.57302
G1 X85.978 Y113.739 E109.6425
G1 X85.983 Y112.872 E109.83713
G1 X85.164 Y112.875 E110.16473
G1 X84.567 Y112.886 E110.40357
G1 X83.797 Y112.917 E110.71182
G1 X83.679 Y112.925 E110.75913
G1 X83.679 Y112.472 E110.85825
G1 X83.78 Y112.479
G1 X84.442 Y112.51 E110.95289
G1 X85.052 Y112.523 E111.07524
G1 X85.749 Y112.523 E111.21223
G1 X85.448 Y111.604 E111.45246
G1 X85.315 Y111.165 E111.63594
G1 X85.127 Y110.684 E111.84251
G1 X85.067 Y110.528 E111.90937
G1 X84.795 Y109.832 E112.20827
G1 X84.472 Y109.103 E112.44382
G1 X84.515 Y109.103
G0 F3927.3 X84.369 Y108.841
G0 X83.727 Y108.597
G10
G0 X83.767 Y108.579
G0 X85.185 Y109.372
G0 X87.305 Y109.602
G0 X88.18 Y108.018
G0 X90.681 Y106.171
G0 X92.441 Y102.116
G0 X101.226 Y102.11
G11
G0 X101.296 Y102.13
G1 F1800 X92.427 Y102.13 E115.99142
G1 X92.427 Y102.01 E116.03942
G1 X101.296 Y102.01 E116.46514
G1 X101.296 Y102.13 E116.51314
G0 F3927.3 X100.996 Y102.13
G10
G0 X100.996 Y102.11
G0 X102.617 Y102.116
G0 X105.787 Y103.937
G0 X107.119 Y103.864
G0 X107.79 Y109.175
G0 X117.471 Y109.175
G0 X117.507 Y106.041
G0 X117.329 Y104.862
G0 X116.126 Y103.856
G11
G0 X116.063 Y103.75
G1 F1800 X115.981 Y103.731 E116.54681
G1 X116.579 Y103.834 E116.68741
G1 X117.177 Y103.992 E116.93482
G1 X117.588 Y104.141 E117.10969
G1 X117.83 Y104.341 E117.23527
G1 X118.007 Y104.682 E117.38895
G1 X118.1 Y105.208 E117.60261
G1 X118.101 Y105.673 E117.78861
G1 X118.103 Y108.219 E118.80701
G1 X118.13 Y109.179 E119.19116
G1 X118.151 Y109.574 E119.34939
G1 X112.727 Y109.574 E121.51899
G1 X112.731 Y110.239 E121.78499
G1 X112.737 Y110.503 E121.89062
G1 X112.764 Y111.054 E122.11128
G1 X112.774 Y111.186 E122.16424
G1 X112.104 Y111.186 E122.33888
G1 X112.141 Y110.501 E122.50804
G1 X112.149 Y110.1 E122.61486
G1 X112.149 Y109.574 E122.73891
G1 X107.959 Y109.574 E124.41491
G1 X107.703 Y110.191 E124.68211
G1 X108.089 Y110.595 E124.90561
G1 X108.34 Y110.884 E125.05872
G1 X108.711 Y111.323 E125.28863
G1 X109.139 Y111.856 E125.56206
G1 X109.706 Y112.599 E125.93591
G1 X117.794 Y112.597 E129.17111
G1 X118.613 Y112.585 E129.49875
G1 X119.435 Y112.565 E129.82765
G1 X120.173 Y112.54 E130.12302
G1 X120.173 Y113.087 E130.20616
G1 X119.975 Y113.079
G1 X119.105 Y113.052 E130.46403
G1 X118.286 Y113.034 E130.70753
G1 X117.513 Y113.026 E130.92522
G1 X110.483 Y113.027 E132.82862
G1 X110.198 Y113.543 E133.06441
G1 X110.485 Y114.002 E133.28095
G1 X110.774 Y114.425 E133.48587
G1 X110.972 Y114.686 E133.61691
G1 X110.159 Y114.973 E133.83932
G1 X109.943 Y114.513 E134.00934
G1 X109.663 Y113.959 E134.20356
G1 X109.38 Y113.499 E134.39216
G1 X109.027 Y113.027 E134.59063
G1 X105.447 Y113.027 E136.02263
G1 X104.989 Y113.029 E136.20583
G1 X104.314 Y113.04 E136.47587
G1 X103.445 Y113.071 E136.82369
G1 X103.247 Y113.081 E136.90299
G1 X103.247 Y112.542 E137.03236
G1 X104.027 Y112.573 E137.23644
G1 X104.655 Y112.591 E137.41889
G1 X105.213 Y112.598 E137.5788
G1 X108.175 Y112.599 E138.45866
G1 X108.454 Y112.056 E138.65877
G1 X108.054 Y111.514 E138.8771
G1 X107.698 Y111.079 E139.06304
G1 X107.312 Y110.649 E139.21796
G1 X106.903 Y110.233 E139.41631
G1 X106.47 Y109.826 E139.65401
G1 X106.009 Y109.427 E139.89789
G1 X105.545 Y109.062 E140.13403
G1 X104.997 Y108.673 E140.40284
G1 X104.442 Y108.32 E140.66594
G1 X104.181 Y108.163 E140.78777
G1 X103.246 Y107.645 E141.21533
G1 X103.283 Y107.61 E141.23571
G1 X103.738 Y107.142 E141.31979
G1 X103.779 Y107.05 E141.36008
G1 X104.448 Y107.489 E141.58067
G1 X104.974 Y107.849 E141.78073
G1 X105.53 Y108.253 E141.99656
G1 X105.954 Y108.581 E142.14285
G1 X106.543 Y109.111 E142.3563
G1 X107.16 Y108.855 E142.6235
G1 X107.161 Y105.65 E143.9055
G1 X107.152 Y105.104 E144.12393
G1 X107.134 Y104.512 E144.36084
G1 X107.105 Y103.851 E144.6255
G1 X107.818 Y103.851 E144.78002
G1 X107.818 Y105.65 E145.39083
G1 X107.818 Y109.147 E146.33054
G1 X112.148 Y109.147 E147.10242
G1 X112.149 Y104.435 E148.98722
G1 X112.141 Y103.919 E149.19365
G1 X112.123 Y103.347 E149.42256
G1 X112.093 Y102.7 E149.68164
G1 X112.785 Y102.7 E149.8315
G1 X112.772 Y102.945
G1 X112.742 Y103.744 E150.06997
G1 X112.729 Y104.443 E150.25058
G1 X112.729 Y109.147 E151.34218
G1 X117.443 Y109.147 E152.06597
G1 X117.444 Y106.206 E152.97752
G1 X117.442 Y106.015 E153.05393
G1 X117.478 Y106.015 E153.06833
G1 X117.398 Y105.296 E153.26446
G1 X117.352 Y105.022 E153.32719
G1 X117.282 Y104.85 E153.3664
G1 X116.989 Y104.618 E153.46724
